X: 20170
T: Job Of Journeywork, The
R: hornpipe
M: 4/4
K: Dmajor
fe|dcAG FGAB|=cBcA cdef|dB=cA BGAF|GBAF DEFG|
ABAF GFEF|D2DE F2 G2|A2 d2 cdef|d2 dd d2:|
|:de|f2 ef gfef|d2 dc A2 de|f2 ef gfef|d2 dd d2 cd|
eaag f2 ed|dcde f2 ed|dcAG FGAB|=cBcA cdef|dB=cA BGAF|
GBAF DEFG|ABAF GFEF|D2 DE F2 G2|A2 d2 cdef|d2 dd d2:|

